X:668
M:C
L:1/8
K:C
e/f/|g<ca<c g<ce<c|G>c GF/E/ D<d de/f/|g<ca<c g<ce<c|G<c G>F E<C Ce/f/|
g<ca<c g<ce<c|G>c GF/E/ D<d de/f/|g>e a<f g<cd<c|G>c GF/E/ G<c~c||

